icons/trace-24.svg

<svg id="icons" xmlns="http://www.w3.org/2000/svg" viewBox="0 0 24 24"><defs><style>.cls-1{fill:none;}</style></defs><path d="M23,4V1H20V2H14V1H11V3.98273L10.34991,5h1.18665l.639-1H14V3h6V4h1V19H20v1H19v1h1v1h3V19H22V4ZM13,3H12V2h1Zm9,18H21V20h1ZM21,2h1V3H21ZM11,21h1v2H11Zm0-1v1H9.00006V20Zm1,0h2.00006v1H12Zm0,0H11V18h1ZM5,20H7v1H5Zm11,0h2v1H16ZM2,20H4v1H1V19.6817l.01562-.01068-.02929-.01868L2.04224,18H3.22888L2,19.923Zm3.87659-8H7.06323L5.7851,14H4.59845ZM3.868,17H2.68134l1.27807-2H5.14606ZM9.61945,8H8.4328L9.71088,6h1.18664ZM7.7937,9H8.98035L7.70227,11H6.51562Z"/><rect class="cls-1" width="24" height="24"/></svg>

<svg xmlns="http://www.w3.org/2000/svg" viewBox="0 0 24 24"><path d="M23 4V1h-3v1h-6V1h-3v2.983L10.35 5h1.187l.639-1H14V3h6v1h1v15h-1v1h-1v1h1v1h3v-3h-1V4zM13 3h-1V2h1zm9 18h-1v-1h1zM21 2h1v1h-1zM11 21h1v2h-1zm0-1v1H9v-1zm1 0h2v1h-2zm0 0h-1v-2h1zm-7 0h2v1H5zm11 0h2v1h-2zM2 20h2v1H1v-1.318l.016-.011-.03-.019L2.042 18H3.23L2 19.923zm3.877-8h1.186l-1.278 2H4.598zm-2.009 5H2.681l1.278-2h1.187zm5.751-9H8.433L9.71 6h1.187zM7.794 9H8.98l-1.278 2H6.516z"/><path fill="none" d="M0 0h24v24H0z"/></svg>
